src/Mod/TechDraw/Gui/Resources/icons/TechDraw_ExtensionRemovePrefixChar.svg

<?xml version="1.0" encoding="UTF-8"?>
<!DOCTYPE svg  PUBLIC '-//W3C//DTD SVG 1.1//EN'  'http://www.w3.org/Graphics/SVG/1.1/DTD/svg11.dtd'>
<svg width="16.93mm" height="16.93mm" fill-rule="evenodd" stroke-linejoin="round" stroke-width="28.222" preserveAspectRatio="xMidYMid" version="1.2" viewBox="0 0 1693 1693" xml:space="preserve" xmlns="http://www.w3.org/2000/svg" xmlns:ooo="http://xml.openoffice.org/svg/export">
 <defs class="ClipPathGroup">
  <clipPath id="presentation_clip_path">
   <rect width="1693" height="1693"/>
  </clipPath>
 </defs>
 <g class="SlideGroup">
   <g id="container-id1">
    <g id="id1" class="Slide" clip-path="url(#presentation_clip_path)">
     <g class="Page">
      <g class="Graphic">
       <g id="id3">
        <rect class="BoundingBox" width="1693" height="1693" fill="none"/>
        <defs>
         <clipPath id="clip_path_1">
          <path d="m0 0h1692v1692h-1692v-1692z"/>
         </clipPath>
        </defs>
        <g clip-path="url(#clip_path_1)">
         <path d="m121 974v0c-7-26-11-51-11-77 0-48 13-93 35-134 24-41 58-75 98-98 19-11 38-19 58-26v0c25-7 50-11 77-11 46 0 93 13 133 37 40 23 74 57 98 98 10 18 19 37 25 57v0c8 24 11 51 11 77 0 46-12 93-36 134s-58 74-98 98c-18 10-37 19-57 24v0c-25 8-50 12-76 12-48 0-93-12-135-36-40-24-74-57-98-98-10-17-17-36-24-56" fill="none" stroke="#f00" stroke-linecap="square" stroke-linejoin="bevel" stroke-width="57"/>
         <path d="m492 521-234 743" fill="none" stroke="#f00" stroke-linejoin="miter" stroke-width="57"/>
         <path d="m834 56-174 562" fill="none" stroke="#f00" stroke-linejoin="miter" stroke-width="58"/>
         <path d="m749 528h-185v-387h370v387h-185z" fill="none" stroke="#f00" stroke-linecap="square" stroke-linejoin="bevel" stroke-width="58"/>
         <path d="m813 1063 567 8-85 583-403-3-79-588z" fill="#ff0"/>
         <path d="m813 1063 567 8-85 583-403-3-79-588z" fill="none" stroke="#2b1100" stroke-linejoin="miter" stroke-width="53"/>
         <path d="m1252 714 408 626" fill="none" stroke="#2b1100" stroke-linejoin="miter" stroke-width="53"/>
         <path d="m1425 927 46-28 112 173-43 29" fill="none" stroke="#2b1100" stroke-linejoin="miter" stroke-width="53"/>
         <path d="m984 1182-1 328" fill="none" stroke="#2b1100" stroke-linejoin="miter" stroke-width="40"/>
         <path d="m1100 1187-2 328" fill="none" stroke="#2b1100" stroke-linejoin="miter" stroke-width="40"/>
         <path d="m1215 1187-2 328" fill="none" stroke="#2b1100" stroke-linejoin="miter" stroke-width="40"/>
         <path d="m840 730c80-32 143-18 207 36 64 53 77 144 61 228" fill="none" stroke="#f00" stroke-linecap="square" stroke-linejoin="bevel" stroke-width="66"/>
         <path d="m1111 899 124 5-64 126-72 125-58-125-59-131h129z" fill="#f00"/>
         <path d="m1111 899 124 5-64 126-72 125-58-125-59-131h129z" fill="none" stroke="#f00" stroke-linecap="square" stroke-linejoin="bevel" stroke-width="33"/>
         <path d="m1170 402c0 8-2 15-6 22s-9 12-16 16-14 6-22 6c-7 0-15-2-21-6-7-4-13-9-16-16-4-7-6-14-6-22 0-7 2-15 6-21 3-7 9-13 16-16 6-4 14-6 21-6 8 0 15 2 22 6 7 3 12 9 16 16 4 6 6 14 6 21z" fill="#f00"/>
         <path d="m1170 402c0 8-2 15-6 22s-9 12-16 16-14 6-22 6c-7 0-15-2-21-6-7-4-13-9-16-16-4-7-6-14-6-22 0-7 2-15 6-21 3-7 9-13 16-16 6-4 14-6 21-6 8 0 15 2 22 6 7 3 12 9 16 16 4 6 6 14 6 21v0z" fill="none" stroke="#f00" stroke-linecap="round" stroke-linejoin="miter" stroke-width="40"/>
         <path d="m1392 402c0 7-2 15-5 22-4 6-10 12-16 15-7 4-14 6-22 6s-15-2-22-6c-6-3-12-9-16-15-3-7-5-15-5-22 0-8 2-15 5-22 4-7 10-12 16-16 7-4 14-6 22-6s15 2 22 6c6 4 12 9 16 16 3 7 5 14 5 22z" fill="#f00"/>
         <path d="m1392 402c0 7-2 15-5 22-4 6-10 12-16 15-7 4-14 6-22 6s-15-2-22-6c-6-3-12-9-16-15-3-7-5-15-5-22 0-8 2-15 5-22 4-7 10-12 16-16 7-4 14-6 22-6s15 2 22 6c6 4 12 9 16 16 3 7 5 14 5 22v0z" fill="none" stroke="#f00" stroke-linecap="round" stroke-linejoin="miter" stroke-width="40"/>
         <path d="m1588 402c0 7-2 15-6 22-4 6-9 12-16 15-6 4-14 6-22 6-7 0-15-2-21-6-7-3-12-9-16-15-4-7-6-15-6-22 0-8 2-15 6-22s9-12 16-16c6-4 14-6 21-6 8 0 16 2 22 6 7 4 12 9 16 16s6 14 6 22z" fill="#f00"/>
         <path d="m1588 402c0 7-2 15-6 22-4 6-9 12-16 15-6 4-14 6-22 6-7 0-15-2-21-6-7-3-12-9-16-15-4-7-6-15-6-22 0-8 2-15 6-22s9-12 16-16c6-4 14-6 21-6 8 0 16 2 22 6 7 4 12 9 16 16s6 14 6 22v0z" fill="none" stroke="#f00" stroke-linecap="round" stroke-linejoin="miter" stroke-width="40"/>
        </g>
       </g>
      </g>
     </g>
    </g>
   </g>
 </g>
</svg>

<?xml version="1.0" encoding="UTF-8"?>
<!DOCTYPE svg PUBLIC "-//W3C//DTD SVG 1.1//EN" "http://www.w3.org/Graphics/SVG/1.1/DTD/svg11.dtd">
<svg version="1.2" width="16.93mm" height="16.93mm" viewBox="0 0 1693 1693" preserveAspectRatio="xMidYMid" fill-rule="evenodd" stroke-width="28.222" stroke-linejoin="round" xmlns="http://www.w3.org/2000/svg" xmlns:ooo="http://xml.openoffice.org/svg/export" xmlns:xlink="http://www.w3.org/1999/xlink" xmlns:presentation="http://sun.com/xmlns/staroffice/presentation" xmlns:smil="http://www.w3.org/2001/SMIL20/" xmlns:anim="urn:oasis:names:tc:opendocument:xmlns:animation:1.0" xml:space="preserve">
 <defs class="ClipPathGroup">
  <clipPath id="presentation_clip_path" clipPathUnits="userSpaceOnUse">
   <rect x="0" y="0" width="1693" height="1693"/>
  </clipPath>
  <clipPath id="presentation_clip_path_shrink" clipPathUnits="userSpaceOnUse">
   <rect x="1" y="1" width="1690" height="1690"/>
  </clipPath>
 </defs>
 <defs class="TextShapeIndex">
  <g ooo:slide="id1" ooo:id-list="id3"/>
 </defs>
 <defs class="EmbeddedBulletChars">
  <g id="bullet-char-template-57356" transform="scale(0.00048828125,-0.00048828125)">
   <path d="M 580,1141 L 1163,571 580,0 -4,571 580,1141 Z"/>
  </g>
  <g id="bullet-char-template-57354" transform="scale(0.00048828125,-0.00048828125)">
   <path d="M 8,1128 L 1137,1128 1137,0 8,0 8,1128 Z"/>
  </g>
  <g id="bullet-char-template-10146" transform="scale(0.00048828125,-0.00048828125)">
   <path d="M 174,0 L 602,739 174,1481 1456,739 174,0 Z M 1358,739 L 309,1346 659,739 1358,739 Z"/>
  </g>
  <g id="bullet-char-template-10132" transform="scale(0.00048828125,-0.00048828125)">
   <path d="M 2015,739 L 1276,0 717,0 1260,543 174,543 174,936 1260,936 717,1481 1274,1481 2015,739 Z"/>
  </g>
  <g id="bullet-char-template-10007" transform="scale(0.00048828125,-0.00048828125)">
   <path d="M 0,-2 C -7,14 -16,27 -25,37 L 356,567 C 262,823 215,952 215,954 215,979 228,992 255,992 264,992 276,990 289,987 310,991 331,999 354,1012 L 381,999 492,748 772,1049 836,1024 860,1049 C 881,1039 901,1025 922,1006 886,937 835,863 770,784 769,783 710,716 594,584 L 774,223 C 774,196 753,168 711,139 L 727,119 C 717,90 699,76 672,76 641,76 570,178 457,381 L 164,-76 C 142,-110 111,-127 72,-127 30,-127 9,-110 8,-76 1,-67 -2,-52 -2,-32 -2,-23 -1,-13 0,-2 Z"/>
  </g>
  <g id="bullet-char-template-10004" transform="scale(0.00048828125,-0.00048828125)">
   <path d="M 285,-33 C 182,-33 111,30 74,156 52,228 41,333 41,471 41,549 55,616 82,672 116,743 169,778 240,778 293,778 328,747 346,684 L 369,508 C 377,444 397,411 428,410 L 1163,1116 C 1174,1127 1196,1133 1229,1133 1271,1133 1292,1118 1292,1087 L 1292,965 C 1292,929 1282,901 1262,881 L 442,47 C 390,-6 338,-33 285,-33 Z"/>
  </g>
  <g id="bullet-char-template-9679" transform="scale(0.00048828125,-0.00048828125)">
   <path d="M 813,0 C 632,0 489,54 383,161 276,268 223,411 223,592 223,773 276,916 383,1023 489,1130 632,1184 813,1184 992,1184 1136,1130 1245,1023 1353,916 1407,772 1407,592 1407,412 1353,268 1245,161 1136,54 992,0 813,0 Z"/>
  </g>
  <g id="bullet-char-template-8226" transform="scale(0.00048828125,-0.00048828125)">
   <path d="M 346,457 C 273,457 209,483 155,535 101,586 74,649 74,723 74,796 101,859 155,911 209,963 273,989 346,989 419,989 480,963 531,910 582,859 608,796 608,723 608,648 583,586 532,535 482,483 420,457 346,457 Z"/>
  </g>
  <g id="bullet-char-template-8211" transform="scale(0.00048828125,-0.00048828125)">
   <path d="M -4,459 L 1135,459 1135,606 -4,606 -4,459 Z"/>
  </g>
  <g id="bullet-char-template-61548" transform="scale(0.00048828125,-0.00048828125)">
   <path d="M 173,740 C 173,903 231,1043 346,1159 462,1274 601,1332 765,1332 928,1332 1067,1274 1183,1159 1299,1043 1357,903 1357,740 1357,577 1299,437 1183,322 1067,206 928,148 765,148 601,148 462,206 346,322 231,437 173,577 173,740 Z"/>
  </g>
 </defs>
 <g>
  <g id="id2" class="Master_Slide">
   <g id="bg-id2" class="Background"/>
   <g id="bo-id2" class="BackgroundObjects"/>
  </g>
 </g>
 <g class="SlideGroup">
  <g>
   <g id="container-id1">
    <g id="id1" class="Slide" clip-path="url(#presentation_clip_path)">
     <g class="Page">
      <g class="Graphic">
       <g id="id3">
        <rect class="BoundingBox" stroke="none" fill="none" x="0" y="0" width="1693" height="1693"/>
        <defs>
         <clipPath id="clip_path_1" clipPathUnits="userSpaceOnUse">
          <path d="M 0,0 L 1692,0 1692,1692 0,1692 0,0 Z"/>
         </clipPath>
        </defs>
        <g clip-path="url(#clip_path_1)">
         <path fill="none" stroke="rgb(255,0,0)" stroke-width="57" stroke-linejoin="bevel" stroke-linecap="square" d="M 121,974 L 121,974 C 114,948 110,923 110,897 110,849 123,804 145,763 169,722 203,688 243,665 262,654 281,646 301,639 L 301,639 C 326,632 351,628 378,628 424,628 471,641 511,665 551,688 585,722 609,763 619,781 628,800 634,820 L 634,820 C 642,844 645,871 645,897 645,943 633,990 609,1031 585,1072 551,1105 511,1129 493,1139 474,1148 454,1153 L 454,1153 C 429,1161 404,1165 378,1165 330,1165 285,1153 243,1129 203,1105 169,1072 145,1031 135,1014 128,995 121,975"/>
         <path fill="none" stroke="rgb(255,0,0)" stroke-width="57" stroke-linejoin="miter" d="M 492,521 L 258,1264"/>
         <path fill="none" stroke="rgb(255,0,0)" stroke-width="58" stroke-linejoin="miter" d="M 834,56 L 660,618"/>
         <path fill="none" stroke="rgb(255,0,0)" stroke-width="58" stroke-linejoin="bevel" stroke-linecap="square" d="M 749,528 L 564,528 564,141 934,141 934,528 749,528 Z"/>
         <path fill="rgb(255,255,0)" stroke="none" d="M 813,1063 L 1380,1071 1295,1654 892,1651 813,1063 Z"/>
         <path fill="none" stroke="rgb(43,17,0)" stroke-width="53" stroke-linejoin="miter" d="M 813,1063 L 1380,1071 1295,1654 892,1651 813,1063 Z"/>
         <path fill="none" stroke="rgb(43,17,0)" stroke-width="53" stroke-linejoin="miter" d="M 1252,714 L 1660,1340"/>
         <path fill="none" stroke="rgb(43,17,0)" stroke-width="53" stroke-linejoin="miter" d="M 1425,927 L 1471,899 1583,1072 1540,1101"/>
         <path fill="none" stroke="rgb(43,17,0)" stroke-width="40" stroke-linejoin="miter" d="M 984,1182 L 983,1510 983,1510"/>
         <path fill="none" stroke="rgb(43,17,0)" stroke-width="40" stroke-linejoin="miter" d="M 1100,1187 L 1098,1515 1098,1515"/>
         <path fill="none" stroke="rgb(43,17,0)" stroke-width="40" stroke-linejoin="miter" d="M 1215,1187 L 1213,1515 1213,1515"/>
         <path fill="none" stroke="rgb(255,0,0)" stroke-width="66" stroke-linejoin="bevel" stroke-linecap="square" d="M 840,730 C 920,698 983,712 1047,766 1111,819 1124,910 1108,994"/>
         <path fill="rgb(255,0,0)" stroke="none" d="M 1111,899 L 1235,904 1171,1030 1099,1155 1041,1030 982,899 1111,899 Z"/>
         <path fill="none" stroke="rgb(255,0,0)" stroke-width="33" stroke-linejoin="bevel" stroke-linecap="square" d="M 1111,899 L 1235,904 1171,1030 1099,1155 1041,1030 982,899 1111,899 Z"/>
         <path fill="rgb(255,0,0)" stroke="none" d="M 1170,402 C 1170,410 1168,417 1164,424 1160,431 1155,436 1148,440 1141,444 1134,446 1126,446 1119,446 1111,444 1105,440 1098,436 1092,431 1089,424 1085,417 1083,410 1083,402 1083,395 1085,387 1089,381 1092,374 1098,368 1105,365 1111,361 1119,359 1126,359 1134,359 1141,361 1148,365 1155,368 1160,374 1164,381 1168,387 1170,395 1170,402 L 1170,402 Z"/>
         <path fill="none" stroke="rgb(255,0,0)" stroke-width="40" stroke-linejoin="miter" stroke-linecap="round" d="M 1170,402 C 1170,410 1168,417 1164,424 1160,431 1155,436 1148,440 1141,444 1134,446 1126,446 1119,446 1111,444 1105,440 1098,436 1092,431 1089,424 1085,417 1083,410 1083,402 1083,395 1085,387 1089,381 1092,374 1098,368 1105,365 1111,361 1119,359 1126,359 1134,359 1141,361 1148,365 1155,368 1160,374 1164,381 1168,387 1170,395 1170,402 L 1170,402 Z"/>
         <path fill="rgb(255,0,0)" stroke="none" d="M 1392,402 C 1392,409 1390,417 1387,424 1383,430 1377,436 1371,439 1364,443 1357,445 1349,445 1341,445 1334,443 1327,439 1321,436 1315,430 1311,424 1308,417 1306,409 1306,402 1306,394 1308,387 1311,380 1315,373 1321,368 1327,364 1334,360 1341,358 1349,358 1357,358 1364,360 1371,364 1377,368 1383,373 1387,380 1390,387 1392,394 1392,402 L 1392,402 Z"/>
         <path fill="none" stroke="rgb(255,0,0)" stroke-width="40" stroke-linejoin="miter" stroke-linecap="round" d="M 1392,402 C 1392,409 1390,417 1387,424 1383,430 1377,436 1371,439 1364,443 1357,445 1349,445 1341,445 1334,443 1327,439 1321,436 1315,430 1311,424 1308,417 1306,409 1306,402 1306,394 1308,387 1311,380 1315,373 1321,368 1327,364 1334,360 1341,358 1349,358 1357,358 1364,360 1371,364 1377,368 1383,373 1387,380 1390,387 1392,394 1392,402 L 1392,402 Z"/>
         <path fill="rgb(255,0,0)" stroke="none" d="M 1588,402 C 1588,409 1586,417 1582,424 1578,430 1573,436 1566,439 1560,443 1552,445 1544,445 1537,445 1529,443 1523,439 1516,436 1511,430 1507,424 1503,417 1501,409 1501,402 1501,394 1503,387 1507,380 1511,373 1516,368 1523,364 1529,360 1537,358 1544,358 1552,358 1560,360 1566,364 1573,368 1578,373 1582,380 1586,387 1588,394 1588,402 L 1588,402 Z"/>
         <path fill="none" stroke="rgb(255,0,0)" stroke-width="40" stroke-linejoin="miter" stroke-linecap="round" d="M 1588,402 C 1588,409 1586,417 1582,424 1578,430 1573,436 1566,439 1560,443 1552,445 1544,445 1537,445 1529,443 1523,439 1516,436 1511,430 1507,424 1503,417 1501,409 1501,402 1501,394 1503,387 1507,380 1511,373 1516,368 1523,364 1529,360 1537,358 1544,358 1552,358 1560,360 1566,364 1573,368 1578,373 1582,380 1586,387 1588,394 1588,402 L 1588,402 Z"/>
        </g>
       </g>
      </g>
     </g>
    </g>
   </g>
  </g>
 </g>
</svg>
